Numix-Light/scalable/status/weather-showers-scattered-symbolic.svg

<?xml version="1.0" encoding="UTF-8" standalone="no"?>
<svg
   xmlns:dc="http://purl.org/dc/elements/1.1/"
   xmlns:cc="http://creativecommons.org/ns#"
   xmlns:rdf="http://www.w3.org/1999/02/22-rdf-syntax-ns#"
   xmlns:svg="http://www.w3.org/2000/svg"
   xmlns="http://www.w3.org/2000/svg"
   xmlns:sodipodi="http://sodipodi.sourceforge.net/DTD/sodipodi-0.dtd"
   xmlns:inkscape="http://www.inkscape.org/namespaces/inkscape"
   width="16"
   viewBox="0 0 16 16"
   height="16"
   style="enable-background:new"
   id="svg2"
   version="1.1"
   inkscape:version="0.91 r"
   sodipodi:docname="weather-showers-scattered-symbolic.svg">
  <metadata
     id="metadata117">
    <rdf:RDF>
      <cc:Work
         rdf:about="">
        <dc:format>image/svg+xml</dc:format>
        <dc:type
           rdf:resource="http://purl.org/dc/dcmitype/StillImage" />
      </cc:Work>
    </rdf:RDF>
  </metadata>
  <sodipodi:namedview
     pagecolor="#ffffff"
     bordercolor="#666666"
     borderopacity="1"
     objecttolerance="10"
     gridtolerance="10"
     guidetolerance="10"
     inkscape:pageopacity="0"
     inkscape:pageshadow="2"
     inkscape:window-width="640"
     inkscape:window-height="480"
     id="namedview115" />
  <defs
     id="defs4" />
  <g
     style="fill:#353535"
     id="g101">
    <path
       d="m 2.1176812,8.1108457 c 0.5742258,0.1564617 1.3265412,0 1.3265412,0 0.3408665,0.6106826 1.4645141,1.016998 2.2483451,1.016998 1.2780795,0 2.5886867,-0.4302666 2.8912126,-1.016998 0,0 5.2926979,0.4302697 6.3912509,0 1.599246,-0.6263788 1.101895,-2.5849086 0.03782,-3.2465836 -1.064079,-0.661675 -2.458023,-0.1955772 -2.458023,-0.1955772 0,0 -0.0041,-1.3487202 -1.508961,-1.9924428 C 9.5410491,2.032521 8.2693664,3.4561067 8.2693664,3.4561067 c 0,0 -0.9586818,-2.77784469 -3.6558467,-2.4251565 C 1.9213177,1.382989 2.004234,3.7299147 2.004234,3.7299147 0.90155133,3.9203442 0,4.8982988 0,5.9203817 0,6.9424522 1.1523286,7.8478023 2.1176812,8.1108457 z"
       id="path103" />
    <path
       d="M 1.5742399,11.992677 C 0.35017295,11.649767 1.603407,9.3327113 2.3548298,8.5753338 2.7168267,9.5762333 2.7983068,12.335587 1.5742399,11.992677 z"
       id="path105" />
    <path
       d="m 4.4354386,14.419042 c -1.3926112,-0.390128 0.033183,-3.026222 0.8880709,-3.887884 0.4118411,1.138714 0.5045403,4.27801 -0.8880709,3.887884 z"
       id="path107" />
    <path
       d="M 8.1942542,12.466729 C 6.9461095,12.117073 8.2239947,9.7544412 8.9901986,8.9821652 9.3593161,10.002753 9.442399,12.816383 8.1942542,12.466729 z"
       id="path109" />
    <path
       d="m 10.478427,14.964928 c -1.4648439,-0.410363 0.0349,-3.183188 0.934135,-4.089544 0.433203,1.197778 0.53071,4.499906 -0.934135,4.089544 z"
       id="path111" />
    <path
       d="m 13.291849,12.269422 c -1.320377,-0.369891 0.03146,-2.8692547 0.842009,-3.6862235 0.390479,1.0796518 0.47837,4.0561145 -0.842009,3.6862235 z"
       id="path113" />
  </g>
</svg>

<svg xmlns="http://www.w3.org/2000/svg" viewBox="0 0 16 16" style="enable-background:new">
 <g style="fill:#353535">
  <path d="m 2.118 8.111 c 0.574 0.156 1.327 0 1.327 0 0.341 0.611 1.465 1.017 2.248 1.017 1.278 0 2.589 -0.43 2.891 -1.017 0 0 5.293 0.43 6.391 0 1.599 -0.626 1.102 -2.585 0.038 -3.247 -1.064 -0.662 -2.458 -0.196 -2.458 -0.196 0 0 -0.004 -1.349 -1.509 -1.992 c -1.505 -0.644 -2.777 0.78 -2.777 0.78 c 0 0 -0.959 -2.778 -3.656 -2.425 c -2.692 0.352 -2.609 2.699 -2.609 2.699 -1.103 0.19 -2 1.168 -2 2.19 0 1.022 1.152 1.927 2.118 2.19 z"/>
  <path d="m 1.574 11.993 c -1.224 -0.343 0.029 -2.66 0.781 -3.417 0.362 1 0.443 3.76 -0.781 3.417 z"/>
  <path d="m 4.435 14.419 c -1.393 -0.39 0.033 -3.03 0.888 -3.888 0.412 1.139 0.505 4.278 -0.888 3.888 z"/>
  <path d="m 8.194 12.467 c -1.248 -0.35 0.03 -2.712 0.796 -3.485 0.369 1.021 0.452 3.834 -0.796 3.485 z"/>
  <path d="m 10.478 14.965 c -1.465 -0.41 0.035 -3.183 0.934 -4.09 0.433 1.198 0.531 4.5 -0.934 4.09 z"/>
  <path d="m 13.292 12.269 c -1.32 -0.37 0.031 -2.869 0.842 -3.686 0.39 1.08 0.478 4.056 -0.842 3.686 z"/>
 </g>
</svg>
